X:42
T:Lady Doll St. Clair's Reel. JJo8.042
B:J.Johnson Choice Collection Vol 8 1758
Z:vmp.Simon Wilson 2013 www.village-music-project.org.uk
M:C|
L:1/8
Q:1/2=80
K:Hp
B|A/A/A cA dBcA|Bg2d BGGB|A/A/A cA dBcA|Ba2e cA A:|
|:g|(a/g/f/e/) ca eaca|Bg2d BGGg|1(a/g/f/e/) ca eaca|Ba2e cA A:|
|2(a/g/f) (g/f/e) (f/e/d) (e/d/c)|Ba2e cA A|]

